X: 40398
T: Tom Keane's
R: reel
M: 4/4
K: Dmixolydian
AG|FDDE FGAG|FDDB, C2EG|FDDE FGAG|FDEF D2 AG|
Fz DE F/E/D AD|FDDB, CDEG|FDDE FGAG|F/G/F E/F/E DEFG||
Addc AcAG|FGAB c2Bc|Addc A/B/c AG|FDEF D2 E/F/G|
Addc AcAG|E/F/G A (c~c2) Bc|dBcA BGAG|F/E/D EF D4||

